TileServer und Tiles/svg/9/1_24.svg

<?xml version='1.0' encoding='UTF-8' standalone='no'?>
<svg xmlns="http://www.w3.org/2000/svg" width="497pt" viewBox="0 0 497 279" xmlns:xlink="http://www.w3.org/1999/xlink" height="279pt">
 <defs style="stroke:none;" overflow="visible">
  <path id="glyph0-8" d="M 5.515625 -2.6875 C 5.515625 -1.800781 5.285156 -1.113281 4.828125 -0.625 C 4.378906 -0.144531 3.773438 0.09375 3.015625 0.09375 C 2.535156 0.09375 2.109375 -0.0078125 1.734375 -0.21875 C 1.367188 -0.4375 1.078125 -0.753906 0.859375 -1.171875 C 0.648438 -1.585938 0.546875 -2.09375 0.546875 -2.6875 C 0.546875 -3.570312 0.769531 -4.253906 1.21875 -4.734375 C 1.664062 -5.210938 2.273438 -5.453125 3.046875 -5.453125 C 3.523438 -5.453125 3.945312 -5.34375 4.3125 -5.125 C 4.6875 -4.914062 4.976562 -4.601562 5.1875 -4.1875 C 5.40625 -3.78125 5.515625 -3.28125 5.515625 -2.6875 Z M 1.453125 -2.6875 C 1.453125 -2.050781 1.578125 -1.546875 1.828125 -1.171875 C 2.078125 -0.804688 2.476562 -0.625 3.03125 -0.625 C 3.570312 -0.625 3.96875 -0.804688 4.21875 -1.171875 C 4.46875 -1.546875 4.59375 -2.050781 4.59375 -2.6875 C 4.59375 -3.320312 4.46875 -3.816406 4.21875 -4.171875 C 3.96875 -4.535156 3.566406 -4.71875 3.015625 -4.71875 C 2.472656 -4.71875 2.078125 -4.535156 1.828125 -4.171875 C 1.578125 -3.816406 1.453125 -3.320312 1.453125 -2.6875 Z M 1.453125 -2.6875 "/>
  <path id="glyph0-7" d="M 1.734375 0 L 0.84375 0 L 0.84375 -7.59375 L 1.734375 -7.59375 Z M 1.734375 0 "/>
  <path id="glyph0-6" d="M 2.875 -5.453125 C 3.53125 -5.453125 4.015625 -5.304688 4.328125 -5.015625 C 4.640625 -4.734375 4.796875 -4.28125 4.796875 -3.65625 L 4.796875 0 L 4.15625 0 L 3.984375 -0.765625 L 3.953125 -0.765625 C 3.710938 -0.460938 3.460938 -0.242188 3.203125 -0.109375 C 2.953125 0.0234375 2.601562 0.09375 2.15625 0.09375 C 1.664062 0.09375 1.257812 -0.03125 0.9375 -0.28125 C 0.613281 -0.539062 0.453125 -0.941406 0.453125 -1.484375 C 0.453125 -2.023438 0.660156 -2.4375 1.078125 -2.71875 C 1.503906 -3.007812 2.15625 -3.171875 3.03125 -3.203125 L 3.9375 -3.234375 L 3.9375 -3.546875 C 3.9375 -3.992188 3.835938 -4.300781 3.640625 -4.46875 C 3.453125 -4.644531 3.179688 -4.734375 2.828125 -4.734375 C 2.546875 -4.734375 2.28125 -4.691406 2.03125 -4.609375 C 1.78125 -4.523438 1.539062 -4.429688 1.3125 -4.328125 L 1.046875 -4.984375 C 1.285156 -5.117188 1.5625 -5.226562 1.875 -5.3125 C 2.195312 -5.40625 2.53125 -5.453125 2.875 -5.453125 Z M 3.9375 -2.625 L 3.140625 -2.59375 C 2.472656 -2.5625 2.007812 -2.453125 1.75 -2.265625 C 1.5 -2.078125 1.375 -1.816406 1.375 -1.484375 C 1.375 -1.179688 1.460938 -0.957031 1.640625 -0.8125 C 1.828125 -0.675781 2.0625 -0.609375 2.34375 -0.609375 C 2.800781 -0.609375 3.179688 -0.734375 3.484375 -0.984375 C 3.785156 -1.234375 3.9375 -1.617188 3.9375 -2.140625 Z M 3.9375 -2.625 "/>
  <path id="glyph0-5" d="M 5.015625 -1.90625 C 5.015625 -1.269531 4.785156 -0.773438 4.328125 -0.421875 C 3.867188 -0.078125 3.25 0.09375 2.46875 0.09375 C 2.070312 0.09375 1.703125 0.0625 1.359375 0 C 1.015625 -0.0507812 0.734375 -0.128906 0.515625 -0.234375 L 0.515625 -1.09375 C 0.753906 -0.988281 1.050781 -0.894531 1.40625 -0.8125 C 1.757812 -0.726562 2.128906 -0.6875 2.515625 -0.6875 C 3.046875 -0.6875 3.445312 -0.785156 3.71875 -0.984375 C 3.988281 -1.191406 4.125 -1.472656 4.125 -1.828125 C 4.125 -2.066406 4.070312 -2.265625 3.96875 -2.421875 C 3.863281 -2.578125 3.691406 -2.722656 3.453125 -2.859375 C 3.210938 -2.992188 2.875 -3.140625 2.4375 -3.296875 C 1.832031 -3.515625 1.375 -3.785156 1.0625 -4.109375 C 0.75 -4.429688 0.59375 -4.867188 0.59375 -5.421875 C 0.59375 -5.796875 0.691406 -6.117188 0.890625 -6.390625 C 1.085938 -6.660156 1.351562 -6.867188 1.6875 -7.015625 C 2.03125 -7.160156 2.425781 -7.234375 2.875 -7.234375 C 3.269531 -7.234375 3.628906 -7.195312 3.953125 -7.125 C 4.285156 -7.050781 4.582031 -6.957031 4.84375 -6.84375 L 4.5625 -6.0625 C 4.320312 -6.175781 4.054688 -6.269531 3.765625 -6.34375 C 3.472656 -6.414062 3.171875 -6.453125 2.859375 -6.453125 C 2.410156 -6.453125 2.070312 -6.351562 1.84375 -6.15625 C 1.625 -5.96875 1.515625 -5.71875 1.515625 -5.40625 C 1.515625 -5.164062 1.5625 -4.960938 1.65625 -4.796875 C 1.757812 -4.640625 1.921875 -4.5 2.140625 -4.375 C 2.367188 -4.25 2.675781 -4.113281 3.0625 -3.96875 C 3.488281 -3.8125 3.84375 -3.644531 4.125 -3.46875 C 4.414062 -3.289062 4.632812 -3.078125 4.78125 -2.828125 C 4.9375 -2.585938 5.015625 -2.28125 5.015625 -1.90625 Z M 5.015625 -1.90625 "/>
  <path id="glyph0-4" d="M 1.71875 -7.59375 L 1.71875 -3.625 C 1.71875 -3.519531 1.710938 -3.378906 1.703125 -3.203125 C 1.691406 -3.035156 1.6875 -2.890625 1.6875 -2.765625 L 1.71875 -2.765625 C 1.757812 -2.816406 1.816406 -2.890625 1.890625 -2.984375 C 1.972656 -3.085938 2.054688 -3.191406 2.140625 -3.296875 C 2.222656 -3.398438 2.296875 -3.484375 2.359375 -3.546875 L 4.0625 -5.359375 L 5.09375 -5.359375 L 2.9375 -3.0625 L 5.25 0 L 4.1875 0 L 2.328125 -2.5 L 1.71875 -1.96875 L 1.71875 0 L 0.84375 0 L 0.84375 -7.59375 Z M 1.71875 -7.59375 "/>
  <path id="glyph0-3" d="M 3.34375 -5.453125 C 3.445312 -5.453125 3.554688 -5.445312 3.671875 -5.4375 C 3.785156 -5.4375 3.890625 -5.425781 3.984375 -5.40625 L 3.875 -4.59375 C 3.78125 -4.613281 3.679688 -4.628906 3.578125 -4.640625 C 3.484375 -4.648438 3.390625 -4.65625 3.296875 -4.65625 C 3.015625 -4.65625 2.753906 -4.578125 2.515625 -4.421875 C 2.273438 -4.273438 2.082031 -4.066406 1.9375 -3.796875 C 1.800781 -3.535156 1.734375 -3.222656 1.734375 -2.859375 L 1.734375 0 L 0.84375 0 L 0.84375 -5.359375 L 1.5625 -5.359375 L 1.671875 -4.375 L 1.703125 -4.375 C 1.878906 -4.664062 2.101562 -4.914062 2.375 -5.125 C 2.65625 -5.34375 2.976562 -5.453125 3.34375 -5.453125 Z M 3.34375 -5.453125 "/>
  <path id="glyph0-2" d="M 5.328125 -5.359375 L 5.328125 0 L 4.609375 0 L 4.484375 -0.703125 L 4.4375 -0.703125 C 4.269531 -0.429688 4.03125 -0.226562 3.71875 -0.09375 C 3.414062 0.03125 3.085938 0.09375 2.734375 0.09375 C 2.085938 0.09375 1.601562 -0.0546875 1.28125 -0.359375 C 0.957031 -0.671875 0.796875 -1.164062 0.796875 -1.84375 L 0.796875 -5.359375 L 1.6875 -5.359375 L 1.6875 -1.90625 C 1.6875 -1.050781 2.082031 -0.625 2.875 -0.625 C 3.46875 -0.625 3.878906 -0.789062 4.109375 -1.125 C 4.335938 -1.457031 4.453125 -1.9375 4.453125 -2.5625 L 4.453125 -5.359375 Z M 5.328125 -5.359375 "/>
  <path id="glyph0-1" d="M 3.234375 0 L 2.328125 0 L 2.328125 -6.34375 L 0.09375 -6.34375 L 0.09375 -7.140625 L 5.453125 -7.140625 L 5.453125 -6.34375 L 3.234375 -6.34375 Z M 3.234375 0 "/>
  <path id="glyph0-0" d="M 0.9375 0 L 0.9375 -7.140625 L 5.046875 -7.140625 L 5.046875 0 Z M 1.453125 -0.515625 L 4.546875 -0.515625 L 4.546875 -6.625 L 1.453125 -6.625 Z M 1.453125 -0.515625 "/>
 </defs>
 <image width="497" xlink:href="svg/9/1_24.jpg" height="279"/>
 <g>
  <path d="M 206.15625 197.527344 L 205.25 197.527344 L 205.25 191.183594 L 203.015625 191.183594 L 203.015625 190.386719 L 208.375 190.386719 L 208.375 191.183594 L 206.15625 191.183594 Z M 206.15625 197.527344 " transform=" rotate(  340 215.807 194.528) " style="fill:none;stroke-width:3;stroke-linecap:butt;stroke-linejoin:round;stroke:rgb(100%,100%,100%);stroke-opacity:0.6;stroke-miterlimit:10;"/>
  <path d="M 213.308594 192.167969 L 213.308594 197.527344 L 212.589844 197.527344 L 212.464844 196.824219 L 212.417969 196.824219 C 212.25 197.097656 212.011719 197.300781 211.699219 197.433594 C 211.394531 197.558594 211.066406 197.621094 210.714844 197.621094 C 210.066406 197.621094 209.582031 197.472656 209.261719 197.167969 C 208.9375 196.855469 208.777344 196.363281 208.777344 195.683594 L 208.777344 192.167969 L 209.667969 192.167969 L 209.667969 195.621094 C 209.667969 196.476562 210.0625 196.902344 210.855469 196.902344 C 211.449219 196.902344 211.859375 196.738281 212.089844 196.402344 C 212.316406 196.070312 212.433594 195.589844 212.433594 194.964844 L 212.433594 192.167969 Z M 213.308594 192.167969 " transform=" rotate(  340 215.807 194.528) " style="fill:none;stroke-width:3;stroke-linecap:butt;stroke-linejoin:round;stroke:rgb(100%,100%,100%);stroke-opacity:0.6;stroke-miterlimit:10;"/>
  <path d="M 217.503906 192.074219 C 217.605469 192.074219 217.714844 192.082031 217.832031 192.089844 C 217.945312 192.089844 218.050781 192.101562 218.144531 192.121094 L 218.035156 192.933594 C 217.941406 192.914062 217.839844 192.898438 217.738281 192.886719 C 217.644531 192.878906 217.550781 192.871094 217.457031 192.871094 C 217.175781 192.871094 216.914062 192.949219 216.675781 193.105469 C 216.433594 193.253906 216.242188 193.460938 216.097656 193.730469 C 215.960938 193.992188 215.894531 194.304688 215.894531 194.667969 L 215.894531 197.527344 L 215.003906 197.527344 L 215.003906 192.167969 L 215.722656 192.167969 L 215.832031 193.152344 L 215.863281 193.152344 C 216.039062 192.863281 216.261719 192.613281 216.535156 192.402344 C 216.816406 192.183594 217.136719 192.074219 217.503906 192.074219 Z M 217.503906 192.074219 " transform=" rotate(  340 215.807 194.528) " style="fill:none;stroke-width:3;stroke-linecap:butt;stroke-linejoin:round;stroke:rgb(100%,100%,100%);stroke-opacity:0.6;stroke-miterlimit:10;"/>
  <path d="M 220.011719 189.933594 L 220.011719 193.902344 C 220.011719 194.007812 220.003906 194.148438 219.996094 194.324219 C 219.984375 194.492188 219.980469 194.636719 219.980469 194.761719 L 220.011719 194.761719 C 220.050781 194.710938 220.109375 194.636719 220.183594 194.542969 C 220.265625 194.441406 220.347656 194.335938 220.433594 194.230469 C 220.515625 194.128906 220.589844 194.042969 220.652344 193.980469 L 222.355469 192.167969 L 223.386719 192.167969 L 221.230469 194.464844 L 223.542969 197.527344 L 222.480469 197.527344 L 220.621094 195.027344 L 220.011719 195.558594 L 220.011719 197.527344 L 219.136719 197.527344 L 219.136719 189.933594 Z M 220.011719 189.933594 " transform=" rotate(  340 215.807 194.528) " style="fill:none;stroke-width:3;stroke-linecap:butt;stroke-linejoin:round;stroke:rgb(100%,100%,100%);stroke-opacity:0.6;stroke-miterlimit:10;"/>
  <path d="M 228.960938 192.167969 L 228.960938 197.527344 L 228.242188 197.527344 L 228.117188 196.824219 L 228.070312 196.824219 C 227.902344 197.097656 227.664062 197.300781 227.351562 197.433594 C 227.046875 197.558594 226.71875 197.621094 226.367188 197.621094 C 225.71875 197.621094 225.234375 197.472656 224.914062 197.167969 C 224.589844 196.855469 224.429688 196.363281 224.429688 195.683594 L 224.429688 192.167969 L 225.320312 192.167969 L 225.320312 195.621094 C 225.320312 196.476562 225.714844 196.902344 226.507812 196.902344 C 227.101562 196.902344 227.511719 196.738281 227.742188 196.402344 C 227.96875 196.070312 228.085938 195.589844 228.085938 194.964844 L 228.085938 192.167969 Z M 228.960938 192.167969 " transform=" rotate(  340 215.807 194.528) " style="fill:none;stroke-width:3;stroke-linecap:butt;stroke-linejoin:round;stroke:rgb(100%,100%,100%);stroke-opacity:0.6;stroke-miterlimit:10;"/>
  <g transform=" rotate(  340 215.807 194.528) " style="fill:rgb(13.333333%,13.333333%,13.333333%);fill-opacity:1;">
   <use xlink:href="#glyph0-1" y="197.527618" x="202.921645"/>
   <use xlink:href="#glyph0-2" y="197.527618" x="207.981645"/>
   <use xlink:href="#glyph0-3" y="197.527618" x="214.161645"/>
   <use xlink:href="#glyph0-4" y="197.527618" x="218.291645"/>
   <use xlink:href="#glyph0-2" y="197.527618" x="223.631645"/>
  </g>
  <path d="M 382.445312 222.898438 C 382.445312 223.535156 382.214844 224.03125 381.757812 224.382812 C 381.296875 224.726562 380.679688 224.898438 379.898438 224.898438 C 379.5 224.898438 379.132812 224.867188 378.789062 224.804688 C 378.445312 224.753906 378.164062 224.675781 377.945312 224.570312 L 377.945312 223.710938 C 378.183594 223.816406 378.480469 223.910156 378.835938 223.992188 C 379.1875 224.078125 379.558594 224.117188 379.945312 224.117188 C 380.476562 224.117188 380.875 224.019531 381.148438 223.820312 C 381.417969 223.613281 381.554688 223.332031 381.554688 222.976562 C 381.554688 222.738281 381.5 222.539062 381.398438 222.382812 C 381.292969 222.226562 381.121094 222.082031 380.882812 221.945312 C 380.640625 221.8125 380.304688 221.664062 379.867188 221.507812 C 379.261719 221.289062 378.804688 221.019531 378.492188 220.695312 C 378.179688 220.375 378.023438 219.9375 378.023438 219.382812 C 378.023438 219.007812 378.121094 218.6875 378.320312 218.414062 C 378.515625 218.144531 378.78125 217.9375 379.117188 217.789062 C 379.460938 217.644531 379.855469 217.570312 380.304688 217.570312 C 380.699219 217.570312 381.058594 217.609375 381.382812 217.679688 C 381.714844 217.753906 382.011719 217.847656 382.273438 217.960938 L 381.992188 218.742188 C 381.75 218.628906 381.484375 218.535156 381.195312 218.460938 C 380.902344 218.390625 380.601562 218.351562 380.289062 218.351562 C 379.839844 218.351562 379.5 218.453125 379.273438 218.648438 C 379.054688 218.835938 378.945312 219.085938 378.945312 219.398438 C 378.945312 219.640625 378.992188 219.84375 379.085938 220.007812 C 379.1875 220.164062 379.351562 220.304688 379.570312 220.429688 C 379.796875 220.554688 380.105469 220.691406 380.492188 220.835938 C 380.917969 220.992188 381.273438 221.160156 381.554688 221.335938 C 381.84375 221.515625 382.0625 221.726562 382.210938 221.976562 C 382.367188 222.21875 382.445312 222.523438 382.445312 222.898438 Z M 382.445312 222.898438 " transform=" rotate(  340 387.014 221.805) " style="fill:none;stroke-width:3;stroke-linecap:butt;stroke-linejoin:round;stroke:rgb(100%,100%,100%);stroke-opacity:0.6;stroke-miterlimit:10;"/>
  <path d="M 385.792969 219.351562 C 386.449219 219.351562 386.933594 219.5 387.246094 219.789062 C 387.558594 220.070312 387.714844 220.523438 387.714844 221.148438 L 387.714844 224.804688 L 387.074219 224.804688 L 386.902344 224.039062 L 386.871094 224.039062 C 386.628906 224.34375 386.378906 224.5625 386.121094 224.695312 C 385.871094 224.828125 385.519531 224.898438 385.074219 224.898438 C 384.582031 224.898438 384.175781 224.773438 383.855469 224.523438 C 383.53125 224.265625 383.371094 223.863281 383.371094 223.320312 C 383.371094 222.78125 383.578125 222.367188 383.996094 222.085938 C 384.421875 221.796875 385.074219 221.632812 385.949219 221.601562 L 386.855469 221.570312 L 386.855469 221.257812 C 386.855469 220.8125 386.753906 220.503906 386.558594 220.335938 C 386.371094 220.160156 386.097656 220.070312 385.746094 220.070312 C 385.464844 220.070312 385.199219 220.113281 384.949219 220.195312 C 384.699219 220.28125 384.457031 220.375 384.230469 220.476562 L 383.964844 219.820312 C 384.203125 219.6875 384.480469 219.578125 384.792969 219.492188 C 385.113281 219.398438 385.449219 219.351562 385.792969 219.351562 Z M 386.855469 222.179688 L 386.058594 222.210938 C 385.390625 222.242188 384.925781 222.351562 384.667969 222.539062 C 384.417969 222.726562 384.292969 222.988281 384.292969 223.320312 C 384.292969 223.625 384.378906 223.847656 384.558594 223.992188 C 384.746094 224.128906 384.980469 224.195312 385.261719 224.195312 C 385.71875 224.195312 386.097656 224.070312 386.402344 223.820312 C 386.703125 223.570312 386.855469 223.1875 386.855469 222.664062 Z M 386.855469 222.179688 " transform=" rotate(  340 387.014 221.805) " style="fill:none;stroke-width:3;stroke-linecap:butt;stroke-linejoin:round;stroke:rgb(100%,100%,100%);stroke-opacity:0.6;stroke-miterlimit:10;"/>
  <path d="M 390.265625 224.804688 L 389.375 224.804688 L 389.375 217.210938 L 390.265625 217.210938 Z M 390.265625 224.804688 " transform=" rotate(  340 387.014 221.805) " style="fill:none;stroke-width:3;stroke-linecap:butt;stroke-linejoin:round;stroke:rgb(100%,100%,100%);stroke-opacity:0.6;stroke-miterlimit:10;"/>
  <path d="M 396.625 222.117188 C 396.625 223.003906 396.394531 223.691406 395.9375 224.179688 C 395.488281 224.660156 394.882812 224.898438 394.125 224.898438 C 393.644531 224.898438 393.21875 224.796875 392.84375 224.585938 C 392.476562 224.367188 392.1875 224.050781 391.96875 223.632812 C 391.757812 223.21875 391.65625 222.710938 391.65625 222.117188 C 391.65625 221.234375 391.878906 220.550781 392.328125 220.070312 C 392.773438 219.59375 393.382812 219.351562 394.15625 219.351562 C 394.632812 219.351562 395.054688 219.460938 395.421875 219.679688 C 395.796875 219.890625 396.085938 220.203125 396.296875 220.617188 C 396.515625 221.023438 396.625 221.523438 396.625 222.117188 Z M 392.5625 222.117188 C 392.5625 222.753906 392.6875 223.257812 392.9375 223.632812 C 393.1875 224 393.585938 224.179688 394.140625 224.179688 C 394.679688 224.179688 395.078125 224 395.328125 223.632812 C 395.578125 223.257812 395.703125 222.753906 395.703125 222.117188 C 395.703125 221.484375 395.578125 220.988281 395.328125 220.632812 C 395.078125 220.269531 394.675781 220.085938 394.125 220.085938 C 393.582031 220.085938 393.1875 220.269531 392.9375 220.632812 C 392.6875 220.988281 392.5625 221.484375 392.5625 222.117188 Z M 392.5625 222.117188 " transform=" rotate(  340 387.014 221.805) " style="fill:none;stroke-width:3;stroke-linecap:butt;stroke-linejoin:round;stroke:rgb(100%,100%,100%);stroke-opacity:0.6;stroke-miterlimit:10;"/>
  <g transform=" rotate(  340 387.014 221.805) " style="fill:rgb(13.333333%,13.333333%,13.333333%);fill-opacity:1;">
   <use xlink:href="#glyph0-5" y="224.805402" x="377.429313"/>
   <use xlink:href="#glyph0-6" y="224.805402" x="382.919313"/>
   <use xlink:href="#glyph0-7" y="224.805402" x="388.529313"/>
   <use xlink:href="#glyph0-8" y="224.805402" x="391.109313"/>
  </g>
 </g>
</svg>

<svg xmlns="http://www.w3.org/2000/svg" xmlns:xlink="http://www.w3.org/1999/xlink" viewBox="0 0 497 279"> <defs overflow="visible" style="stroke:none">  <path id="h" d="M5.5-2.7c0 .9-.2 1.7-.7 2-.4.7-1 .9-1.8.9-.5-.2-.9-.2-1.3-.4-.3-.2-.6-.6-.7-1C.6-1.6.5-2 .5-2.7c0-.9.3-1.6.7-2 .5-.5 1-.8 1.8-.8.5 0 1 .2 1.3.5.4 0 .7.4.9.9.2.2.3.7.3 1.3Zm-4 0c0 .7 0 1.2.3 1.5.3.4.7.6 1.2.6.6 0 1-.2 1.2-.6.3-.3.4-.8.4-1.5s-.1-1.1-.4-1.5c-.2-.3-.6-.5-1.2-.5-.5 0-1 .2-1.2.5-.2.4-.3.9-.3 1.5Zm0 0"/>  <path id="g" d="M1.7 0H.8v-7.6h1Zm0 0"/>  <path id="f" d="M2.9-5.5c.6 0 1.1.2 1.4.5.3.3.5.7.5 1.3V0h-.6L4-.8c-.3.3-.5.6-.8.8h-1c-.5 0-1 0-1.3-.3C.6-.5.5-.9.5-1.5c0-.5.2-1 .5-1.2.5-.3 1-.5 2-.5h.8v-.3c.2-.5.2-.8-.2-1l-.8-.2H2l-.7.5L1-5l1-.3.9-.2Zm1 2.9h-.8c-.6 0-1 .1-1.4.3-.1.3-.3.5-.3.8 0 .3 0 .5.2.7l.7.2c.5 0 .9-.1 1.2-.4.3-.2.4-.6.4-1Zm.1 0"/>  <path id="e" d="M5-2c0 .8-.2 1.3-.7 1.7-.3.2-1 .3-1.8.3H1.4a3 3 0 0 1-.9-.2v-.9a5 5 0 0 0 1 .3l.9.1c.6 0 1.1 0 1.3-.3.3-.2.4-.5.4-.8L4-2.4 3.5-3a7.2 7.2 0 0 0-1-.3c-.8-.2-1.2-.5-1.5-.8C.7-4.4.6-5 .6-5.4s0-.7.3-1a2 2 0 0 1 .8-.6 3 3 0 0 1 1.2-.2h1a5 5 0 0 1 1.1.5l-.5.6a4.5 4.5 0 0 0-.7-.2l-1-.2c-.3 0-.6.1-.9.3-.3.2-.4.5-.4.8 0 .2 0 .4.2.6 0 .2.2.3.3.4l1.1.4.9.5.8.7.2.8Zm0 0"/>  <path id="d" d="M1.7-7.6v4.8L2-3v-.3l.4-.2L4-5.4h1L2.9-3l2.4 3H4.2L2.3-2.5l-.6.5v2H.8v-7.6Zm0 0"/>  <path id="c" d="M3.3-5.5H4l-.1 1.1-.3-.3h-.3c-.3 0-.5 0-.8.2l-.5.7-.3 1V0H.8v-5.4h.8v1h.2l.6-.6c.3-.3.6-.5 1-.5Zm0 0"/>  <path id="b" d="M5.3-5.4V0h-.7l-.1-.7c-.3.3-.5.5-.9.6l-.9.2C2.1 0 1.6-.1 1.3-.4 1-.7.8-1.2.8-1.8v-3.6h.9v3.5c0 .8.3 1.3 1.2 1.3.6 0 1-.2 1.1-.5.3-.4.5-.9.5-1.5v-2.8Zm0 0"/>  <path id="a" d="M3.2 0h-.9v-6.3H.1v-.8h5.4v.8H3.2Zm0 0"/>  <path d="M1 0v-7.1h4V0Zm.4-.5h3.1v-6.1h-3Zm.1 0"/> </defs> <image xlink:href="svg/9/1_24.jpg" width="497" height="279"/> <path d="M206.2 197.5h-1v-6.3H203v-.8h5.4v.8h-2.2Zm7.1-5.3v5.3h-.7l-.1-.7c-.4.3-.5.5-.9.6-.2.2-.5.2-.9.2-.6 0-1.1-.1-1.4-.4-.4-.3-.5-.8-.5-1.5v-3.5h.9v3.4c0 .9.3 1.4 1.2 1.4.5-.1 1-.3 1.1-.6.3-.3.4-.8.4-1.4v-2.8Zm4.2-.2h.3l.3.2v.8h-.7c-.2-.1-.5-.1-.7 0l-.7.7-.1 1v2.8h-.9v-5.3h.7l.1 1 .8-.8c.2-.2.5-.3.9-.3Zm2.5-2v4.7l.2-.2.2-.3.3-.2 1.7-1.8h1l-2.2 2.3 2.3 3h-1l-1.9-2.5-.6.6v2h-.9v-7.8Zm9 2.2v5.3h-.8v-.7h-.2c-.1.3-.3.5-.6.6-.4.2-.7.2-1 .2-.7 0-1.2-.1-1.5-.4-.3-.3-.5-.8-.5-1.5v-3.5h1v3.4c-.1.9.2 1.4 1 1.4.7-.1 1.1-.3 1.3-.6.3-.3.4-.8.4-1.4v-2.8Zm0 0" style="fill:none;stroke-width:3;stroke-linecap:butt;stroke-linejoin:round;stroke:#fff;stroke-opacity:.6;stroke-miterlimit:10" transform=" rotate(  340 215.807 194.528) "/> <g style="fill:#222;fill-opacity:1" transform=" rotate(  340 215.807 194.528) ">  <use xlink:href="#a" x="202.9" y="197.5"/>  <use xlink:href="#b" x="208" y="197.5"/>  <use xlink:href="#c" x="214.2" y="197.5"/>  <use xlink:href="#d" x="218.3" y="197.5"/>  <use xlink:href="#b" x="223.6" y="197.5"/> </g> <path d="M382.4 222.9c0 .6-.2 1.1-.6 1.5-.5.3-1.1.5-1.9.5l-1.1-.1a3 3 0 0 1-.9-.2v-.9a5 5 0 0 0 1.1.3h.8c.7.1 1.2.1 1.3-.2.3-.2.5-.5.5-.8l-.2-.6-.5-.5a7.2 7.2 0 0 0-1-.4c-.6-.2-1.1-.5-1.4-.8-.3-.3-.5-.8-.5-1.3 0-.4.1-.7.3-1a2 2 0 0 1 .8-.6 3 3 0 0 1 1.2-.2h1a5 5 0 0 1 1.1.4l-.4.7a4.5 4.5 0 0 0-.8-.2l-1-.1c-.3 0-.6 0-.9.2-.1.2-.3.5-.3.8 0 .2 0 .4.1.6-.1.2.3.3.5.4.2.2.4.3.9.4l1 .5c.4.2.7.4.8.7.1.2.1.5.1.9Zm3.4-3.5c.6 0 1.1.1 1.4.4.4.2.5.7.5 1.2v3.8h-.6l-.2-.8c-.3.3-.5.6-.9.7l-.9.2c-.5 0-1.1-.1-1.2-.4-.4-.2-.5-.5-.5-1.2 0-.5.2-1 .6-1.2.4-.3 1-.5 2-.5h.8v-.3c.1-.5 0-.8-.2-1l-.9-.2-.7.1-.8.3-.2-.7.8-.3 1-.1Zm1 2.8h-.6c-.8 0-1.3.2-1.5.3-.3.2-.4.5-.4.8 0 .3 0 .5.3.7l.7.2c.4 0 .7-.1 1.1-.4.3-.2.5-.6.5-1.1Zm3.5 2.6h-1v-7.6h1.1Zm6.3-2.7c0 .9-.2 1.6-.6 2-.5.7-1 .9-1.9.9-.5-.1-.9-.2-1.3-.4-.3-.2-.6-.6-.8-1-.2-.4-.3-.9-.3-1.5 0-.9.2-1.5.6-2 .5-.5 1-.7 1.9-.7.4 0 .8 0 1.2.3.4.2.7.5.9 1 .2.3.3.7.3 1.3Zm-4 0c0 .7 0 1.2.3 1.5.3.4.7.6 1.2.6.6 0 1-.2 1.2-.6.3-.3.4-.8.4-1.5 0-.6-.1-1.1-.4-1.5-.2-.3-.6-.5-1.2-.5-.5-.1-1 .2-1.1.5-.3.4-.4.9-.4 1.5Zm0 0" style="fill:none;stroke-width:3;stroke-linecap:butt;stroke-linejoin:round;stroke:#fff;stroke-opacity:.6;stroke-miterlimit:10" transform=" rotate(  340 387.014 221.805) "/> <g style="fill:#222;fill-opacity:1" transform=" rotate(  340 387.014 221.805) ">  <use xlink:href="#e" x="377.4" y="224.8"/>  <use xlink:href="#f" x="382.9" y="224.8"/>  <use xlink:href="#g" x="388.5" y="224.8"/>  <use xlink:href="#h" x="391.1" y="224.8"/> </g></svg>
